X:1
T:Christ Was Born on Christmas Day
T:Christ Was Born on Christmas Day
T:Thomas Helmore
T:John Mason Neale, 1853
T:Public Domain Courtesy of the Cyber Hymnal™
T:Public Domain Courtesy of the Cyber Hymnal™
C:Thomas Helmore
Z:Public Domain
Z:Courtesy of the Cyber Hymnal™
%%score ( 1 2 ) ( 3 4 )
L:1/8
Q:1/4=100
M:6/8
K:F
V:1 treble 
V:2 treble 
V:3 bass 
V:4 bass 
V:1
|:"^Maestoso" [Fc]2 [FA] F2 [FA] | [Fc]2 [Fd] [Fc]2 z | [Fc]2 [FA] F2 [FA] | [Fc]2 [Fd] [Fc]2 z | %4
w: 1.~Christ was born on|Chris- tmas Day;|Wreathe the hol- ly,|twine the bay;|
w: 2.~He is born to|set us free,|He is born our|Lord to be,|
w: 3.~Let the bright red|ber- ries glow|Ev- ery- where in|good- ly show;|
w: 4.~Chris- tian men, re-|joice and sing;|‘Tis the birth- day|of a king,|
 [FB]2 [FB] [FB]2 [Fc] | [FB]2 [FA] [EG]2 [FA] | [Fc]2 [FA] F2 [GB] | [FA]2 [EG] [EG]2 [EA] | %8
w: Chris- tus na- tus|ho- di- e: The|Babe, the Son, The|Ho- ly One of|
w: Ex Ma- ri- â|vir- gi- ne: The|God, the Lord, By|all a- dored for-|
w: Chris- tus na- tus|ho- di- e: The|Babe, the Son, The|Ho- ly One of|
w: Ex Ma- ri- â|vir- gi- ne: The|God, the Lord, By|all a- dored for-|
 F3"^Play 4 times" [CF]3 | [CF]2 [CG] [FA]2 [FB] :| [FA]2 [EG] [EA]2 [DG] | [CF]2 [CE] [CF]3 | %12
w: Ma- ry.||||
w: ev- er.||||
w: Ma- ry.||||
w: ev- er.||||
 [Ec]3 [FA]3 | [Gc]3 [FA]3 | F2 [EG] [FA]2 [GB] | [FA]2 G [FA]3 | F2 [CG] [FA]2 [FB] | %17
w: |||||
w: |||||
w: |||||
w: |||||
 [Ec]2 [GB] [FA]2 [FB] | [FG]2 [EG] !fermata!F3 | [Fc]2 [Fc] [Fd]2 [Ge] | [Af]2 [Ge] [Fd]2 [Fc] | %21
w: ||||
w: ||||
w: ||||
w: ||||
 [Af]2 [ce] [Bd]2 [Ac] | [Ac]2 [FB] [Ac]3 | F2 [EG] [FA]2 [FB] | [Fc]2 [FB] [FA]2 [FB] | %25
w: ||||
w: ||||
w: ||||
w: ||||
 [FG]2 [EG] F2 [Ac] | [Ac]2 [FA] F2 [FA] | [Ac]2 [Bd] !fermata![Ac]2"^più lento" [FA] | %28
w: |||
w: |||
w: |||
w: |||
 [Fc]2 [Fd] [Fc]2"^a tempo" [CF] | [CF]2 [EG] [FA]2 [FB] | [Fc]2 [FB] [FA]2 [FB] | [FG]2 [EG] F3 | %32
w: ||||
w: ||||
w: ||||
w: ||||
 [Fc]2 [Fc] [Fd]2 [Ge] | [Af]2 [Ge] [Fd]2 [Fc] | [Af]2 [ce] [Bd]2 [Ac] | [Ac]2 [FB] [Ac]3 | %36
w: ||||
w: ||||
w: ||||
w: ||||
 F2 [EG] [FA]2 [FB] | [Fc]2 [FB] [FA]2 [FB] | [FG]2 [EG] F3 |] x6 |] %40
w: ||||
w: ||||
w: ||||
w: ||||
V:2
|: x3 F2 x | x6 | x3 F2 x | x6 | x6 | x6 | x3 F2 x | x6 | F3 x3 | x6 :| x6 | x6 | x6 | x6 | F2 x4 | %15
 x2 G x3 | F2 x4 | x6 | x3 F3 | x6 | x6 | x6 | x6 | F2 x4 | x6 | x3 F2 x | x3 F2 x | x6 | x6 | x6 | %30
 x6 | x3 F3 | x6 | x6 | x6 | x6 | F2 x4 | x6 | x3 F3 |] x6 |] %40
V:3
|: [F,A,]2 F, [F,A,]2 F, | [F,A,]2 [B,,B,] [F,A,]2 z | [F,A,]2 F, [F,A,]2 [F,A,] | %3
w: * Night * of||* sad- * *|
 [F,A,]2 [B,,B,] [F,A,]2 z | [D,B,]2 [D,B,] [B,,D]2 [A,,C] | [B,,D]2 [F,C] [C,C]2 [F,C] | %6
w: |||
 [F,A,]2 [F,C] x3 | [F,A,]2 [E,C] x3 | [F,C]2 [C,C] [C,C]2 [C,C] | %9
w: |||
 [F,A,]3 [F,A,]3"^Play 4 times" :| [F,A,]2 [E,G,] [F,C]2 [D,B,] | [F,C]2 [C,C] [A,,C]2 [B,,B,] | %12
w: |ness, morn of glad-|ness Ev- er- more,|
 [C,A,]2 [C,G,] [F,A,]3 | [C,G,]3 [D,F,]3 | [E,C]3 [F,C]3 | [F,C]2 [C,C] [F,C]2 [E,C] | %16
w: ev- er, ev-|er: Af-|ter ma-|ny trou- bles sore,|
 [F,C]2 [E,^C] [D,D]3 | [F,A,]2 [E,B,] [F,C]2 [D,B,] | [C,G,]2 [E,C] [F,C]2 [B,,D] | %19
w: Morn of glad-|ness ev- er- more|and ev- er- more.|
 [C,C]2 [C,B,] !fermata![F,,A,]3 | [F,A,]2 [F,A,] [B,,B,]2 [B,,C] | [A,,C]2 [C,C] [D,A,]2 [F,A,] | %22
w: Mid- night scarce-|ly passed and o-|ver, Draw- ing to|
 [F,C]2 [F,C] [F,C]2 [F,C] | [F,C]2 [B,D] [F,C]3 | [F,A,]2 [C,C] [F,C]2 [B,,D] | %25
w: this ho- ly morn,|Ve- ry ear-|ly, ve- ry ear-|
 [A,,C]2 [B,,D] [F,C]2 [B,,D] | [C,C]2 [C,C] [F,,A,]2 [F,C] | [F,C]2 [F,C] [F,A,]2 [F,C] | %28
w: ly Christ was born.|Sing out with bliss,|His name is this;|
 F,2 [B,,F] !fermata![F,F]2 [F,C] | [F,A,]2 [B,,B,] [F,A,]2 [F,A,] | [F,A,]2 [C,C] [F,C]2 [B,,D] | %31
w: Em- man- u- el:|As was fore- told|in days of old|
 [A,,C]2 [B,,D] [F,C]2 [B,,D] | [C,C]2 [C,C] [F,,A,]3 | [F,A,]2 [F,A,] [B,,B,]2 [B,,C] | %34
w: By Ga- bri- el.|Mid- night scarce-|ly passed and o-|
 [A,,C]2 [C,C] [D,A,]2 [F,A,] | [F,C]2 [F,C] [F,C]2 [F,C] | [F,C]2 [B,D] [F,C]3 | %37
w: ver, Draw- ing to|this ho- ly morn,|Ve- ry ear-|
 [F,A,]2 [C,C] [F,C]2 [B,,D] | [A,,C]2 [B,,D] [F,C]2 [B,,D] |] [C,C]2 [C,C] [F,,A,]3 |] %40
w: ly, ve- ry ear-|ly, Christ was born.||
V:4
|: x2 F, x F, x | x6 | x2 F, x3 | x6 | x6 | x6 | x6 | x6 | x6 | x6 :| x6 | x6 | x6 | x6 | x6 | x6 | %16
 x6 | x6 | x6 | x6 | x6 | x6 | x6 | x6 | x6 | x6 | x6 | x6 | x6 | x6 | x6 | x6 | x6 | x6 | x6 | %35
 x6 | x6 | x6 | x6 |] x6 |] %40

